src/assets/images/housing-red.svg

<svg width="52" height="52" viewBox="0 0 52 52" xmlns="http://www.w3.org/2000/svg"><title>housing-red</title><g transform="translate(6 6)" fill="none" fill-rule="evenodd"><circle stroke-opacity=".61" stroke="#D32F2F" stroke-width="12" fill="#D32F2F" cx="20" cy="20" r="20"/><path d="M27.5 16.16v-5.91H24v2.34L19.5 8 7 20.75h3V29h7.75v-6.75h3.5V29H29v-8.25h3l-4.5-4.59z" fill="#FFF"/></g></svg>

<?xml version="1.0" encoding="UTF-8" standalone="no"?>
<svg width="52px" height="52px" viewBox="0 0 52 52" version="1.1" xmlns="http://www.w3.org/2000/svg" xmlns:xlink="http://www.w3.org/1999/xlink">
    <!-- Generator: Sketch 3.6.1 (26313) - http://www.bohemiancoding.com/sketch -->
    <title>housing-red</title>
    <desc>Created with Sketch.</desc>
    <defs></defs>
    <g id="Page-1" stroke="none" stroke-width="1" fill="none" fill-rule="evenodd">
        <g id="map-icons" transform="translate(-355.000000, -175.000000)">
            <g id="housing-red" transform="translate(361.000000, 181.000000)">
                <circle id="path-1" stroke-opacity="0.61" stroke="#D32F2F" stroke-width="12" fill="#D32F2F" cx="20" cy="20" r="20"></circle>
                <path d="M27.5,16.16025 L27.5,10.25 L24,10.25 L24,12.58975 L19.5,8 L7,20.75 L10,20.75 L10,29 L17.75,29 L17.75,22.25 L21.25,22.25 L21.25,29 L29,29 L29,20.75 L32,20.75 L27.5,16.16025 Z" id="Shape" fill="#FFFFFF"></path>
            </g>
        </g>
    </g>
</svg>
